report_00007_2020-12-11T15:55:29.892Z/cumulative-layout-shift/comparison/line/0_vs_1.svg

<svg width="640" height="500" xmlns="http://www.w3.org/2000/svg" xmlns:xlink="http://www.w3.org/1999/xlink"><path fill="#fff" d="M0 0h640v500H0z"/><defs><path id="d" stroke-width=".222" stroke="currentColor" d="M-1-1h2v2h-2z"/><path id="b" stroke-width=".222" stroke="currentColor" d="M0-1.33l-1.33 2h2.66z"/><path id="f" stroke-width=".222" stroke="currentColor" d="M0 1.33L1.265.411.782-1.067l-1.564-.009-.483 1.487z"/><use xlink:href="#b" id="c" stroke="currentColor" transform="rotate(180)"/><use xlink:href="#d" id="e" stroke="currentColor" transform="rotate(45)"/><circle id="a" stroke-width=".222" stroke="currentColor" cx="0" cy="0" r="1"/></defs><g fill="none" color="#000" stroke="currentColor"><path stroke="#000" d="M53.9 420.1h9m552.1 0h-9"/><text transform="translate(45.6 424)" stroke="none" fill="#000" font-family="Arial" font-size="12" text-anchor="end"><tspan>0</tspan></text></g><g fill="none" color="#000" stroke="currentColor"><path stroke="#000" d="M53.9 352h9m552.1 0h-9"/><text transform="translate(45.6 355.9)" stroke="none" fill="#000" font-family="Arial" font-size="12" text-anchor="end"><tspan>0.1</tspan></text></g><g fill="none" color="#000" stroke="currentColor"><path stroke="#000" d="M53.9 284h9m552.1 0h-9"/><text transform="translate(45.6 287.9)" stroke="none" fill="#000" font-family="Arial" font-size="12" text-anchor="end"><tspan>0.2</tspan></text></g><g fill="none" color="#000" stroke="currentColor"><path stroke="#000" d="M53.9 215.9h9m552.1 0h-9"/><text transform="translate(45.6 219.8)" stroke="none" fill="#000" font-family="Arial" font-size="12" text-anchor="end"><tspan>0.3</tspan></text></g><g fill="none" color="#000" stroke="currentColor"><path stroke="#000" d="M53.9 147.8h9m552.1 0h-9"/><text transform="translate(45.6 151.7)" stroke="none" fill="#000" font-family="Arial" font-size="12" text-anchor="end"><tspan>0.4</tspan></text></g><g fill="none" color="#000" stroke="currentColor"><path stroke="#000" d="M53.9 79.7h9m552.1 0h-9"/><text transform="translate(45.6 83.6)" stroke="none" fill="#000" font-family="Arial" font-size="12" text-anchor="end"><tspan>0.5</tspan></text></g><g fill="none" color="#000" stroke="currentColor"><path stroke="#000" d="M53.9 428v-9m0-400.9v9"/><text transform="translate(53.9 449.9)" stroke="none" fill="#000" font-family="Arial" font-size="12" text-anchor="middle"><tspan>0</tspan></text></g><g fill="none" color="#000" stroke="currentColor"><path stroke="#000" d="M110.6 428v-9m0-400.9v9"/><text transform="translate(110.6 449.9)" stroke="none" fill="#000" font-family="Arial" font-size="12" text-anchor="middle"><tspan>10</tspan></text></g><g fill="none" color="#000" stroke="currentColor"><path stroke="#000" d="M167.3 428v-9m0-400.9v9"/><text transform="translate(167.3 449.9)" stroke="none" fill="#000" font-family="Arial" font-size="12" text-anchor="middle"><tspan>20</tspan></text></g><g fill="none" color="#000" stroke="currentColor"><path stroke="#000" d="M223.9 428v-9m0-400.9v9"/><text transform="translate(223.9 449.9)" stroke="none" fill="#000" font-family="Arial" font-size="12" text-anchor="middle"><tspan>30</tspan></text></g><g fill="none" color="#000" stroke="currentColor"><path stroke="#000" d="M280.6 428v-9m0-400.9v9"/><text transform="translate(280.6 449.9)" stroke="none" fill="#000" font-family="Arial" font-size="12" text-anchor="middle"><tspan>40</tspan></text></g><g fill="none" color="#000" stroke="currentColor"><path stroke="#000" d="M337.3 428v-9m0-400.9v9"/><text transform="translate(337.3 449.9)" stroke="none" fill="#000" font-family="Arial" font-size="12" text-anchor="middle"><tspan>50</tspan></text></g><g fill="none" color="#000" stroke="currentColor"><path stroke="#000" d="M394 428v-9m0-400.9v9"/><text transform="translate(394 449.9)" stroke="none" fill="#000" font-family="Arial" font-size="12" text-anchor="middle"><tspan>60</tspan></text></g><g fill="none" color="#000" stroke="currentColor"><path stroke="#000" d="M450.6 428v-9m0-400.9v9"/><text transform="translate(450.6 449.9)" stroke="none" fill="#000" font-family="Arial" font-size="12" text-anchor="middle"><tspan>70</tspan></text></g><g fill="none" color="#000" stroke="currentColor"><path stroke="#000" d="M507.3 428v-9m0-400.9v9"/><text transform="translate(507.3 449.9)" stroke="none" fill="#000" font-family="Arial" font-size="12" text-anchor="middle"><tspan>80</tspan></text></g><g fill="none" color="#000" stroke="currentColor"><path stroke="#000" d="M564 428v-9m0-400.9v9"/><text transform="translate(564 449.9)" stroke="none" fill="#000" font-family="Arial" font-size="12" text-anchor="middle"><tspan>90</tspan></text></g><path stroke="#000" d="M53.9 18.1V428H615V18.1H53.9z" fill="none" color="#000"/><text transform="translate(275.6 467.9)" stroke="none" fill="#000" font-family="Arial" font-size="12" text-anchor="end" color="#000"><tspan>empty</tspan></text><path stroke="#9400D3" d="M283.9 464h42.2M53.9 420.1H615" fill="none" color="#000"/><text transform="translate(275.6 485.9)" stroke="none" fill="#000" font-family="Arial" font-size="12" text-anchor="end" color="#000"><tspan>pages</tspan></text><path stroke="#009E73" d="M283.9 482h42.2M53.9 212.5l5.7 57.3L65.2 26l5.7 243.8h5.7L82.2 26h5.7l5.7 243.8L99.2 26l5.7 243.8L110.6 26l5.6 243.8h5.7L127.6 26h11.3l5.7 243.8h5.7L155.9 26h17l5.7 243.8L184.3 26h22.6l5.7 243.8L218.3 26h11.3l5.7 243.8L240.9 26l5.7 84 5.7-84h28.3l5.7 243.8h5.6L297.6 26h5.7l5.6 243.8L314.6 26h5.7l5.6 243.8L331.6 26l5.7 256.4 5.7-12.6L348.6 26h17l5.7 83.9L377 26l5.6 243.8L388.3 26h11.3l5.7 243.8L411 26l5.6 84 5.7 159.8L428 26h5.6l5.7 243.8h5.7L450.6 26l5.7 243.8L462 26H518.6l5.7 243.8h5.7l5.7-57.3L541.3 26l5.7 243.8 5.7-159.9h5.6L564 26h5.7l5.6 243.8h5.7L586.7 26H598l5.7 243.8h5.6L615 26" fill="none" color="#000"/><text transform="translate(475.5 467.9)" stroke="none" fill="#000" font-family="Arial" font-size="12" text-anchor="end" color="#000"><tspan>score p10=0.1</tspan></text><path stroke="#56B4E9" d="M483.8 464H526M53.9 352H615" fill="none" color="#000"/><g><text transform="translate(475.5 485.9)" stroke="none" fill="#000" font-family="Arial" font-size="12" text-anchor="end" color="#000"><tspan>score median=0.25</tspan></text><path stroke="#E69F00" d="M483.8 482H526M53.9 249.9H615" fill="none" color="#000"/></g><g fill="none" color="#000" stroke="currentColor"><path stroke="#000" d="M53.9 18.1V428H615V18.1H53.9z"/></g></svg>

<?xml version="1.0" encoding="utf-8"  standalone="no"?>
<svg 
 width="640" height="500"
 viewBox="0 0 640 500"
 xmlns="http://www.w3.org/2000/svg"
 xmlns:xlink="http://www.w3.org/1999/xlink"
>

<title>Gnuplot</title>
<desc>Produced by GNUPLOT 5.4 patchlevel 0 </desc>

<g id="gnuplot_canvas">

<rect x="0" y="0" width="640" height="500" fill="#ffffff"/>
<defs>

	<circle id='gpDot' r='0.5' stroke-width='0.5' stroke='currentColor'/>
	<path id='gpPt0' stroke-width='0.222' stroke='currentColor' d='M-1,0 h2 M0,-1 v2'/>
	<path id='gpPt1' stroke-width='0.222' stroke='currentColor' d='M-1,-1 L1,1 M1,-1 L-1,1'/>
	<path id='gpPt2' stroke-width='0.222' stroke='currentColor' d='M-1,0 L1,0 M0,-1 L0,1 M-1,-1 L1,1 M-1,1 L1,-1'/>
	<rect id='gpPt3' stroke-width='0.222' stroke='currentColor' x='-1' y='-1' width='2' height='2'/>
	<rect id='gpPt4' stroke-width='0.222' stroke='currentColor' fill='currentColor' x='-1' y='-1' width='2' height='2'/>
	<circle id='gpPt5' stroke-width='0.222' stroke='currentColor' cx='0' cy='0' r='1'/>
	<use xlink:href='#gpPt5' id='gpPt6' fill='currentColor' stroke='none'/>
	<path id='gpPt7' stroke-width='0.222' stroke='currentColor' d='M0,-1.33 L-1.33,0.67 L1.33,0.67 z'/>
	<use xlink:href='#gpPt7' id='gpPt8' fill='currentColor' stroke='none'/>
	<use xlink:href='#gpPt7' id='gpPt9' stroke='currentColor' transform='rotate(180)'/>
	<use xlink:href='#gpPt9' id='gpPt10' fill='currentColor' stroke='none'/>
	<use xlink:href='#gpPt3' id='gpPt11' stroke='currentColor' transform='rotate(45)'/>
	<use xlink:href='#gpPt11' id='gpPt12' fill='currentColor' stroke='none'/>
	<path id='gpPt13' stroke-width='0.222' stroke='currentColor' d='M0,1.330 L1.265,0.411 L0.782,-1.067 L-0.782,-1.076 L-1.265,0.411 z'/>
	<use xlink:href='#gpPt13' id='gpPt14' fill='currentColor' stroke='none'/>
	<filter id='textbox' filterUnits='objectBoundingBox' x='0' y='0' height='1' width='1'>
	  <feFlood flood-color='#FFFFFF' flood-opacity='1' result='bgnd'/>
	  <feComposite in='SourceGraphic' in2='bgnd' operator='atop'/>
	</filter>
	<filter id='greybox' filterUnits='objectBoundingBox' x='0' y='0' height='1' width='1'>
	  <feFlood flood-color='lightgrey' flood-opacity='1' result='grey'/>
	  <feComposite in='SourceGraphic' in2='grey' operator='atop'/>
	</filter>
</defs>
<g fill="none" color="#FFFFFF" stroke="black" stroke-width="1.00" stroke-linecap="butt" stroke-linejoin="miter">
</g>
<g fill="none" color="black" stroke="currentColor" stroke-width="1.00" stroke-linecap="butt" stroke-linejoin="miter">
	<path stroke='black'  d='M53.9,420.1 L62.9,420.1 M615.0,420.1 L606.0,420.1  '/>	<g transform="translate(45.6,424.0)" stroke="none" fill="black" font-family="Arial" font-size="12.00"  text-anchor="end">
		<text><tspan font-family="Arial" > 0</tspan></text>
	</g>
</g>
<g fill="none" color="black" stroke="currentColor" stroke-width="1.00" stroke-linecap="butt" stroke-linejoin="miter">
	<path stroke='black'  d='M53.9,352.0 L62.9,352.0 M615.0,352.0 L606.0,352.0  '/>	<g transform="translate(45.6,355.9)" stroke="none" fill="black" font-family="Arial" font-size="12.00"  text-anchor="end">
		<text><tspan font-family="Arial" > 0.1</tspan></text>
	</g>
</g>
<g fill="none" color="black" stroke="currentColor" stroke-width="1.00" stroke-linecap="butt" stroke-linejoin="miter">
	<path stroke='black'  d='M53.9,284.0 L62.9,284.0 M615.0,284.0 L606.0,284.0  '/>	<g transform="translate(45.6,287.9)" stroke="none" fill="black" font-family="Arial" font-size="12.00"  text-anchor="end">
		<text><tspan font-family="Arial" > 0.2</tspan></text>
	</g>
</g>
<g fill="none" color="black" stroke="currentColor" stroke-width="1.00" stroke-linecap="butt" stroke-linejoin="miter">
	<path stroke='black'  d='M53.9,215.9 L62.9,215.9 M615.0,215.9 L606.0,215.9  '/>	<g transform="translate(45.6,219.8)" stroke="none" fill="black" font-family="Arial" font-size="12.00"  text-anchor="end">
		<text><tspan font-family="Arial" > 0.3</tspan></text>
	</g>
</g>
<g fill="none" color="black" stroke="currentColor" stroke-width="1.00" stroke-linecap="butt" stroke-linejoin="miter">
	<path stroke='black'  d='M53.9,147.8 L62.9,147.8 M615.0,147.8 L606.0,147.8  '/>	<g transform="translate(45.6,151.7)" stroke="none" fill="black" font-family="Arial" font-size="12.00"  text-anchor="end">
		<text><tspan font-family="Arial" > 0.4</tspan></text>
	</g>
</g>
<g fill="none" color="black" stroke="currentColor" stroke-width="1.00" stroke-linecap="butt" stroke-linejoin="miter">
	<path stroke='black'  d='M53.9,79.7 L62.9,79.7 M615.0,79.7 L606.0,79.7  '/>	<g transform="translate(45.6,83.6)" stroke="none" fill="black" font-family="Arial" font-size="12.00"  text-anchor="end">
		<text><tspan font-family="Arial" > 0.5</tspan></text>
	</g>
</g>
<g fill="none" color="black" stroke="currentColor" stroke-width="1.00" stroke-linecap="butt" stroke-linejoin="miter">
	<path stroke='black'  d='M53.9,428.0 L53.9,419.0 M53.9,18.1 L53.9,27.1  '/>	<g transform="translate(53.9,449.9)" stroke="none" fill="black" font-family="Arial" font-size="12.00"  text-anchor="middle">
		<text><tspan font-family="Arial" > 0</tspan></text>
	</g>
</g>
<g fill="none" color="black" stroke="currentColor" stroke-width="1.00" stroke-linecap="butt" stroke-linejoin="miter">
	<path stroke='black'  d='M110.6,428.0 L110.6,419.0 M110.6,18.1 L110.6,27.1  '/>	<g transform="translate(110.6,449.9)" stroke="none" fill="black" font-family="Arial" font-size="12.00"  text-anchor="middle">
		<text><tspan font-family="Arial" > 10</tspan></text>
	</g>
</g>
<g fill="none" color="black" stroke="currentColor" stroke-width="1.00" stroke-linecap="butt" stroke-linejoin="miter">
	<path stroke='black'  d='M167.3,428.0 L167.3,419.0 M167.3,18.1 L167.3,27.1  '/>	<g transform="translate(167.3,449.9)" stroke="none" fill="black" font-family="Arial" font-size="12.00"  text-anchor="middle">
		<text><tspan font-family="Arial" > 20</tspan></text>
	</g>
</g>
<g fill="none" color="black" stroke="currentColor" stroke-width="1.00" stroke-linecap="butt" stroke-linejoin="miter">
	<path stroke='black'  d='M223.9,428.0 L223.9,419.0 M223.9,18.1 L223.9,27.1  '/>	<g transform="translate(223.9,449.9)" stroke="none" fill="black" font-family="Arial" font-size="12.00"  text-anchor="middle">
		<text><tspan font-family="Arial" > 30</tspan></text>
	</g>
</g>
<g fill="none" color="black" stroke="currentColor" stroke-width="1.00" stroke-linecap="butt" stroke-linejoin="miter">
	<path stroke='black'  d='M280.6,428.0 L280.6,419.0 M280.6,18.1 L280.6,27.1  '/>	<g transform="translate(280.6,449.9)" stroke="none" fill="black" font-family="Arial" font-size="12.00"  text-anchor="middle">
		<text><tspan font-family="Arial" > 40</tspan></text>
	</g>
</g>
<g fill="none" color="black" stroke="currentColor" stroke-width="1.00" stroke-linecap="butt" stroke-linejoin="miter">
	<path stroke='black'  d='M337.3,428.0 L337.3,419.0 M337.3,18.1 L337.3,27.1  '/>	<g transform="translate(337.3,449.9)" stroke="none" fill="black" font-family="Arial" font-size="12.00"  text-anchor="middle">
		<text><tspan font-family="Arial" > 50</tspan></text>
	</g>
</g>
<g fill="none" color="black" stroke="currentColor" stroke-width="1.00" stroke-linecap="butt" stroke-linejoin="miter">
	<path stroke='black'  d='M394.0,428.0 L394.0,419.0 M394.0,18.1 L394.0,27.1  '/>	<g transform="translate(394.0,449.9)" stroke="none" fill="black" font-family="Arial" font-size="12.00"  text-anchor="middle">
		<text><tspan font-family="Arial" > 60</tspan></text>
	</g>
</g>
<g fill="none" color="black" stroke="currentColor" stroke-width="1.00" stroke-linecap="butt" stroke-linejoin="miter">
	<path stroke='black'  d='M450.6,428.0 L450.6,419.0 M450.6,18.1 L450.6,27.1  '/>	<g transform="translate(450.6,449.9)" stroke="none" fill="black" font-family="Arial" font-size="12.00"  text-anchor="middle">
		<text><tspan font-family="Arial" > 70</tspan></text>
	</g>
</g>
<g fill="none" color="black" stroke="currentColor" stroke-width="1.00" stroke-linecap="butt" stroke-linejoin="miter">
	<path stroke='black'  d='M507.3,428.0 L507.3,419.0 M507.3,18.1 L507.3,27.1  '/>	<g transform="translate(507.3,449.9)" stroke="none" fill="black" font-family="Arial" font-size="12.00"  text-anchor="middle">
		<text><tspan font-family="Arial" > 80</tspan></text>
	</g>
</g>
<g fill="none" color="black" stroke="currentColor" stroke-width="1.00" stroke-linecap="butt" stroke-linejoin="miter">
	<path stroke='black'  d='M564.0,428.0 L564.0,419.0 M564.0,18.1 L564.0,27.1  '/>	<g transform="translate(564.0,449.9)" stroke="none" fill="black" font-family="Arial" font-size="12.00"  text-anchor="middle">
		<text><tspan font-family="Arial" > 90</tspan></text>
	</g>
</g>
<g fill="none" color="black" stroke="currentColor" stroke-width="1.00" stroke-linecap="butt" stroke-linejoin="miter">
</g>
<g fill="none" color="black" stroke="currentColor" stroke-width="1.00" stroke-linecap="butt" stroke-linejoin="miter">
	<path stroke='black'  d='M53.9,18.1 L53.9,428.0 L615.0,428.0 L615.0,18.1 L53.9,18.1 Z  '/></g>
<g fill="none" color="black" stroke="currentColor" stroke-width="1.00" stroke-linecap="butt" stroke-linejoin="miter">
</g>
	<g id="gnuplot_plot_1" ><title>empty</title>
<g fill="none" color="black" stroke="currentColor" stroke-width="1.00" stroke-linecap="butt" stroke-linejoin="miter">
	<g transform="translate(275.6,467.9)" stroke="none" fill="black" font-family="Arial" font-size="12.00"  text-anchor="end">
		<text><tspan font-family="Arial" >empty</tspan></text>
	</g>
</g>
<g fill="none" color="black" stroke="currentColor" stroke-width="1.00" stroke-linecap="butt" stroke-linejoin="miter">
	<path stroke='rgb(148,   0, 211)'  d='M283.9,464.0 L326.1,464.0 M53.9,420.1 L59.6,420.1 L65.2,420.1 L70.9,420.1 L76.6,420.1 L82.2,420.1
		L87.9,420.1 L93.6,420.1 L99.2,420.1 L104.9,420.1 L110.6,420.1 L116.2,420.1 L121.9,420.1 L127.6,420.1
		L133.2,420.1 L138.9,420.1 L144.6,420.1 L150.3,420.1 L155.9,420.1 L161.6,420.1 L167.3,420.1 L172.9,420.1
		L178.6,420.1 L184.3,420.1 L189.9,420.1 L195.6,420.1 L201.3,420.1 L206.9,420.1 L212.6,420.1 L218.3,420.1
		L223.9,420.1 L229.6,420.1 L235.3,420.1 L240.9,420.1 L246.6,420.1 L252.3,420.1 L257.9,420.1 L263.6,420.1
		L269.3,420.1 L274.9,420.1 L280.6,420.1 L286.3,420.1 L291.9,420.1 L297.6,420.1 L303.3,420.1 L308.9,420.1
		L314.6,420.1 L320.3,420.1 L325.9,420.1 L331.6,420.1 L337.3,420.1 L343.0,420.1 L348.6,420.1 L354.3,420.1
		L360.0,420.1 L365.6,420.1 L371.3,420.1 L377.0,420.1 L382.6,420.1 L388.3,420.1 L394.0,420.1 L399.6,420.1
		L405.3,420.1 L411.0,420.1 L416.6,420.1 L422.3,420.1 L428.0,420.1 L433.6,420.1 L439.3,420.1 L445.0,420.1
		L450.6,420.1 L456.3,420.1 L462.0,420.1 L467.6,420.1 L473.3,420.1 L479.0,420.1 L484.6,420.1 L490.3,420.1
		L496.0,420.1 L501.6,420.1 L507.3,420.1 L513.0,420.1 L518.6,420.1 L524.3,420.1 L530.0,420.1 L535.7,420.1
		L541.3,420.1 L547.0,420.1 L552.7,420.1 L558.3,420.1 L564.0,420.1 L569.7,420.1 L575.3,420.1 L581.0,420.1
		L586.7,420.1 L592.3,420.1 L598.0,420.1 L603.7,420.1 L609.3,420.1 L615.0,420.1  '/></g>
	</g>
	<g id="gnuplot_plot_2" ><title>pages</title>
<g fill="none" color="black" stroke="currentColor" stroke-width="1.00" stroke-linecap="butt" stroke-linejoin="miter">
	<g transform="translate(275.6,485.9)" stroke="none" fill="black" font-family="Arial" font-size="12.00"  text-anchor="end">
		<text><tspan font-family="Arial" >pages</tspan></text>
	</g>
</g>
<g fill="none" color="black" stroke="currentColor" stroke-width="1.00" stroke-linecap="butt" stroke-linejoin="miter">
	<path stroke='rgb(  0, 158, 115)'  d='M283.9,482.0 L326.1,482.0 M53.9,212.5 L59.6,269.8 L65.2,26.0 L70.9,269.8 L76.6,269.8 L82.2,26.0
		L87.9,26.0 L93.6,269.8 L99.2,26.0 L104.9,269.8 L110.6,26.0 L116.2,269.8 L121.9,269.8 L127.6,26.0
		L133.2,26.0 L138.9,26.0 L144.6,269.8 L150.3,269.8 L155.9,26.0 L161.6,26.0 L167.3,26.0 L172.9,26.0
		L178.6,269.8 L184.3,26.0 L189.9,26.0 L195.6,26.0 L201.3,26.0 L206.9,26.0 L212.6,269.8 L218.3,26.0
		L223.9,26.0 L229.6,26.0 L235.3,269.8 L240.9,26.0 L246.6,110.0 L252.3,26.0 L257.9,26.0 L263.6,26.0
		L269.3,26.0 L274.9,26.0 L280.6,26.0 L286.3,269.8 L291.9,269.8 L297.6,26.0 L303.3,26.0 L308.9,269.8
		L314.6,26.0 L320.3,26.0 L325.9,269.8 L331.6,26.0 L337.3,282.4 L343.0,269.8 L348.6,26.0 L354.3,26.0
		L360.0,26.0 L365.6,26.0 L371.3,109.9 L377.0,26.0 L382.6,269.8 L388.3,26.0 L394.0,26.0 L399.6,26.0
		L405.3,269.8 L411.0,26.0 L416.6,110.0 L422.3,269.8 L428.0,26.0 L433.6,26.0 L439.3,269.8 L445.0,269.8
		L450.6,26.0 L456.3,269.8 L462.0,26.0 L467.6,26.0 L473.3,26.0 L479.0,26.0 L484.6,26.0 L490.3,26.0
		L496.0,26.0 L501.6,26.0 L507.3,26.0 L513.0,26.0 L518.6,26.0 L524.3,269.8 L530.0,269.8 L535.7,212.5
		L541.3,26.0 L547.0,269.8 L552.7,109.9 L558.3,109.9 L564.0,26.0 L569.7,26.0 L575.3,269.8 L581.0,269.8
		L586.7,26.0 L592.3,26.0 L598.0,26.0 L603.7,269.8 L609.3,269.8 L615.0,26.0  '/></g>
	</g>
	<g id="gnuplot_plot_3" ><title>score p10=0.1</title>
<g fill="none" color="black" stroke="currentColor" stroke-width="1.00" stroke-linecap="butt" stroke-linejoin="miter">
	<g transform="translate(475.5,467.9)" stroke="none" fill="black" font-family="Arial" font-size="12.00"  text-anchor="end">
		<text><tspan font-family="Arial" >score p10=0.1</tspan></text>
	</g>
</g>
<g fill="none" color="black" stroke="currentColor" stroke-width="1.00" stroke-linecap="butt" stroke-linejoin="miter">
	<path stroke='rgb( 86, 180, 233)'  d='M483.8,464.0 L526.0,464.0 M53.9,352.0 L59.6,352.0 L65.2,352.0 L70.9,352.0 L76.6,352.0 L82.2,352.0
		L87.9,352.0 L93.6,352.0 L99.2,352.0 L104.9,352.0 L110.6,352.0 L116.2,352.0 L121.9,352.0 L127.6,352.0
		L133.2,352.0 L138.9,352.0 L144.6,352.0 L150.3,352.0 L155.9,352.0 L161.6,352.0 L167.3,352.0 L172.9,352.0
		L178.6,352.0 L184.3,352.0 L189.9,352.0 L195.6,352.0 L201.3,352.0 L206.9,352.0 L212.6,352.0 L218.3,352.0
		L223.9,352.0 L229.6,352.0 L235.3,352.0 L240.9,352.0 L246.6,352.0 L252.3,352.0 L257.9,352.0 L263.6,352.0
		L269.3,352.0 L274.9,352.0 L280.6,352.0 L286.3,352.0 L291.9,352.0 L297.6,352.0 L303.3,352.0 L308.9,352.0
		L314.6,352.0 L320.3,352.0 L325.9,352.0 L331.6,352.0 L337.3,352.0 L343.0,352.0 L348.6,352.0 L354.3,352.0
		L360.0,352.0 L365.6,352.0 L371.3,352.0 L377.0,352.0 L382.6,352.0 L388.3,352.0 L394.0,352.0 L399.6,352.0
		L405.3,352.0 L411.0,352.0 L416.6,352.0 L422.3,352.0 L428.0,352.0 L433.6,352.0 L439.3,352.0 L445.0,352.0
		L450.6,352.0 L456.3,352.0 L462.0,352.0 L467.6,352.0 L473.3,352.0 L479.0,352.0 L484.6,352.0 L490.3,352.0
		L496.0,352.0 L501.6,352.0 L507.3,352.0 L513.0,352.0 L518.6,352.0 L524.3,352.0 L530.0,352.0 L535.7,352.0
		L541.3,352.0 L547.0,352.0 L552.7,352.0 L558.3,352.0 L564.0,352.0 L569.7,352.0 L575.3,352.0 L581.0,352.0
		L586.7,352.0 L592.3,352.0 L598.0,352.0 L603.7,352.0 L609.3,352.0 L615.0,352.0  '/></g>
	</g>
	<g id="gnuplot_plot_4" ><title>score median=0.25</title>
<g fill="none" color="black" stroke="currentColor" stroke-width="1.00" stroke-linecap="butt" stroke-linejoin="miter">
	<g transform="translate(475.5,485.9)" stroke="none" fill="black" font-family="Arial" font-size="12.00"  text-anchor="end">
		<text><tspan font-family="Arial" >score median=0.25</tspan></text>
	</g>
</g>
<g fill="none" color="black" stroke="currentColor" stroke-width="1.00" stroke-linecap="butt" stroke-linejoin="miter">
	<path stroke='rgb(230, 159,   0)'  d='M483.8,482.0 L526.0,482.0 M53.9,249.9 L59.6,249.9 L65.2,249.9 L70.9,249.9 L76.6,249.9 L82.2,249.9
		L87.9,249.9 L93.6,249.9 L99.2,249.9 L104.9,249.9 L110.6,249.9 L116.2,249.9 L121.9,249.9 L127.6,249.9
		L133.2,249.9 L138.9,249.9 L144.6,249.9 L150.3,249.9 L155.9,249.9 L161.6,249.9 L167.3,249.9 L172.9,249.9
		L178.6,249.9 L184.3,249.9 L189.9,249.9 L195.6,249.9 L201.3,249.9 L206.9,249.9 L212.6,249.9 L218.3,249.9
		L223.9,249.9 L229.6,249.9 L235.3,249.9 L240.9,249.9 L246.6,249.9 L252.3,249.9 L257.9,249.9 L263.6,249.9
		L269.3,249.9 L274.9,249.9 L280.6,249.9 L286.3,249.9 L291.9,249.9 L297.6,249.9 L303.3,249.9 L308.9,249.9
		L314.6,249.9 L320.3,249.9 L325.9,249.9 L331.6,249.9 L337.3,249.9 L343.0,249.9 L348.6,249.9 L354.3,249.9
		L360.0,249.9 L365.6,249.9 L371.3,249.9 L377.0,249.9 L382.6,249.9 L388.3,249.9 L394.0,249.9 L399.6,249.9
		L405.3,249.9 L411.0,249.9 L416.6,249.9 L422.3,249.9 L428.0,249.9 L433.6,249.9 L439.3,249.9 L445.0,249.9
		L450.6,249.9 L456.3,249.9 L462.0,249.9 L467.6,249.9 L473.3,249.9 L479.0,249.9 L484.6,249.9 L490.3,249.9
		L496.0,249.9 L501.6,249.9 L507.3,249.9 L513.0,249.9 L518.6,249.9 L524.3,249.9 L530.0,249.9 L535.7,249.9
		L541.3,249.9 L547.0,249.9 L552.7,249.9 L558.3,249.9 L56
